assets/sonr-icons/zap-circle.svg

<svg xmlns="http://www.w3.org/2000/svg" width="24" height="24" fill="none" viewBox="0 0 24 24"><path fill="#000" fill-rule="evenodd" d="M12.2848 4.8432C12.6864 4.96793 12.9601 5.33949 12.9601 5.76V9.6L15.8529 9.59999C16.0609 9.59995 16.2772 9.5999 16.4561 9.61621C16.6337 9.63241 16.9525 9.67528 17.2398 9.89357L17.2437 9.89656C17.5779 10.1531 17.7848 10.5445 17.8059 10.9684C17.8237 11.3297 17.6782 11.6178 17.591 11.7734C17.503 11.9303 17.3805 12.1085 17.2628 12.2797L12.7911 18.7839C12.5529 19.1304 12.1169 19.2815 11.7153 19.1568C11.3137 19.0321 11.0401 18.6605 11.0401 18.24V14.4L8.14739 14.4C7.93971 14.4 7.72351 14.4001 7.54449 14.3838C7.36737 14.3677 7.04799 14.325 6.76034 14.1064L6.7564 14.1034C6.42225 13.8468 6.21529 13.4555 6.19425 13.0316C6.1764 12.6703 6.32192 12.3822 6.40914 12.2266C6.49709 12.0697 6.61965 11.8914 6.7373 11.7203L11.209 5.21613C11.4472 4.86961 11.8832 4.71847 12.2848 4.8432ZM8.545 12.48L11.0401 8.85086V10.56C11.0401 11.0902 11.4699 11.52 12.0001 11.52H15.4551L12.9601 15.1491V13.44C12.9601 12.9098 12.5303 12.48 12.0001 12.48H8.545Z" clip-rule="evenodd"/><path fill="#000" fill-rule="evenodd" d="M1.44006 12C1.44006 6.16781 6.16787 1.44 12.0001 1.44C17.8323 1.44 22.5601 6.16781 22.5601 12C22.5601 17.8322 17.8323 22.56 12.0001 22.56C6.16787 22.56 1.44006 17.8322 1.44006 12ZM12.0001 3.36C7.22826 3.36 3.36006 7.2282 3.36006 12C3.36006 16.7718 7.22826 20.64 12.0001 20.64C16.7719 20.64 20.6401 16.7718 20.6401 12C20.6401 7.2282 16.7719 3.36 12.0001 3.36Z" clip-rule="evenodd"/></svg>

<svg xmlns="http://www.w3.org/2000/svg" width="24" height="24" fill="none"><path fill="currentColor" fill-rule="evenodd" d="M12.285 4.843a.96.96 0 0 1 .675.917V9.6h2.893c.208 0 .424 0 .603.016.178.016.497.06.784.278l.004.003c.334.256.54.647.562 1.071.018.362-.128.65-.215.805-.088.157-.21.335-.328.507l-4.472 6.504a.96.96 0 0 1-1.75-.544V14.4H8.146c-.207 0-.423 0-.603-.016-.177-.016-.496-.059-.784-.278l-.004-.003a1.44 1.44 0 0 1-.562-1.071c-.018-.362.128-.65.215-.805a7 7 0 0 1 .328-.507l4.472-6.504a.96.96 0 0 1 1.076-.373m-3.74 7.637 2.495-3.63v1.71c0 .53.43.96.96.96h3.455l-2.495 3.63v-1.71a.96.96 0 0 0-.96-.96z" clip-rule="evenodd"/><path fill="currentColor" fill-rule="evenodd" d="M1.44 12C1.44 6.168 6.168 1.44 12 1.44S22.56 6.168 22.56 12 17.832 22.56 12 22.56 1.44 17.832 1.44 12M12 3.36a8.64 8.64 0 1 0 0 17.28 8.64 8.64 0 0 0 0-17.28" clip-rule="evenodd"/></svg>
